X:69
T:Lucy MacNeil
R:reel
C:Paul S. Cranford
O:Cape Breton Island
S:http://www.cranfordpub.com
D:currently unrecorded
B:currently unpublished in book form
Z:psc, (re-formatted,updated 9/17/04)
N:
H:                                                        copyrights Cranford Publications, SOCAN
L:1/8
Q:333
M:C|
K:Edor
EF|GE E/E/E FDB,E|DEFA {A}d2 cA|BEeB deBd|AFDF A2 EF|
GE E/E/E FDB,E|DEFA {A}d2 cA|BEeB deBd|AFDF E2:|
|:Bc|dF F/F/F {F} A2 FA|dfec dAFA|BedB e2 ef|gefd edBc|
[1dF F/F/F ADFE|DEFA {A} d2 cA|Bede BEdB|AFDF E2:|
[2dF F/F/F eFdF|DCDE FdcA|BEeB deBd|AFDF E2|]
